!!!!SEGMENT: pl-wtm--r-1407_stefani-jozef--marsz.krn
!!!cenid: 18xx:1881
!!!COM: Stefani, Józef
!!!COM-rismid: pe30024097
!!!CDT: 1800/04/16-1876/03/19
!!!CNT: Polish
!!!OTL: Marsz
!!!PDT:
!!!AGN: Secular; March
!!!SMS-siglum: PL-Wtm
!!!SMS-shelfmark: R 1407
!!!SMS-shelfwork: W
!!!SMS-variant:
!!!SMS-altvar:
!!!NIFC-rismid: 1001117997
!!!URL-scan: http://repozytorium.nifc.pl/skany/pl-wtm-nut--r1407
!!!ONB-nifc:
**kern	**dynam	**kern	**dynam
*part2	*part2	*part1	*part1
*staff2	*	*staff1	*
*I"[Piano]	*	*I"[Piano]	*
*I'pf	*	*I'pf	*
*clefF4	*	*clefG2	*
*k[f#]	*	*k[f#]	*
*M2/4	*	*M2/4	*
*>[A,B,B,C,D,D1,D,D2]	*	*	*
*>A	*	*	*
(16D\LL	.	(16dd\LL	f
32E\L	.	32ee\L	.
32F#\JJJ	.	32ff#\JJJ	.
=1	=1	=1	=1
4G\)	.	4gg\)	.
4D/ 4DD/	.	4ddT\	.
.	.	16qqcc#X/LL	.
.	.	16qqdd/JJ	.
=2	=2	=2	=2
8C/ 8CC/	.	8ee'\L	.
8D#X/L 8DD#X/	.	8dd#X\	.
8E/J 8EE/	.	8ee\J	.
8r	.	8r	.
=3	=3	=3	=3
4A\ 4E\ 4C\ 4AA\	.	4ccc\ 4ee\ 4cc^<\	.
4d\ 4A\ 4F#\ 4D\	.	4ff#^<t/	.
.	.	16qqee/LL	.
.	.	16qqff#/JJ	.
=4	=4	=4	=4
8d\L 8B\ 8G\	.	8gg'\L	.
8d\ 8A\ 8F#\ 8D\	.	8ff#\ 8cc\ 8a'\	.
8d\J 8B\ 8G\	.	8gg\J 8b\ 8g'\	.
8r	.	8r	.
!!LO:LB:g=original
=5	=5	=5	=5
4E/ 4EE/	.	4gg\ 4ee\ 4b^<\	.
!	!	!LO:SIC:v:t=wykreślony tryl i zanutki	!
4D/ 4DD/	.	4gg\ 4ee\ 4b^<\	.
=6	=6	=6	=6
8C/L 8CC/	.	8aa\L 8ee\ 8cc'\	.
8BB/ 8BBB/	.	8bb\ 8gg#X\ 8ee'\	.
8AA/J 8AAA/	.	8ccc\J 8aa\ 8ee'\	.
8r	.	8r	.
=7	=7	=7	=7
!	!	!	!LO:DY:rj
8D\L 8DD\	.	8ddd\L 8ff#\ 8dd\	ff
16d\L 16A\ 16F#\ 16D\	.	16ddd\L 16ff#\ 16dd\	.
16d\JJ 16A\ 16F#\ 16D\	.	16ddd\JJ 16ff#\ 16dd\	.
8d\L 8A\ 8F#\ 8D\	.	8ddd\L 8ff#\ 8dd\	.
8d\J 8A\ 8F#\ 8D\	.	8ddd\J 8ff#\ 8dd\	.
=8	=8	=8	=8
8d\L 8B\ 8G\	.	8gg\L 8dd\ 8b'\	.
8d\ 8A\ 8F#\ 8D\	.	8ff#\ 8dd\ 8cc\ 8a'\	.
8d\J 8B\ 8G\	.	8gg\J 8dd\ 8b\ 8g'\	.
8r	.	8dd\	.
!!LO:LB:g=original
=9||	=9||	=9||	=9||
8GG/	.	8bb'\L	mf
8B\L 8G\ 8D\	.	(16bb\L	.
.	.	16aa\JJ)	.
8B\ 8G\ 8D\	.	(16gg\LL	.
.	.	16aa\	.
8B\J 8G\ 8D\	.	16bb\	.
.	.	16ccc\JJ	.
=10	=10	=10	=10
*rep	*	*	*
8GG/	.	8ddd\L)	.
8B\L 8G\ 8D\	.	8ddd\ 8dd'\	.
8B\ 8G\ 8D\	.	8ggg\ 8gg'\	.
8B\J 8G\ 8D\	.	8ggg\J 8gg'\	.
*Xrep	*	*	*
=11	=11	=11	=11
*rep	*	*	*
8GG/	.	8ddd\L 8dd'\	.
8B\L 8G\ 8D\	.	8ddd\ 8dd'\	.
8B\ 8G\ 8D\	.	8ggg\ 8gg'\	.
8B\J 8G\ 8D\	.	8ggg\J 8gg'\	.
*Xrep	*	*	*
=12	=12	=12	=12
8D/ 8DD/	.	8ggg\L 8gg'\	.
8c\L 8A\ 8D\	.	8fff#\ 8ff#'\	.
8c\ 8A\ 8D\	.	8ccc\J 8cc'\	.
8c\J 8A\ 8D\	.	8r	.
=13	=13	=13	=13
.	.	(8qb/	.
8GG/	.	8bb\L)	.
8B\L 8G\ 8D\	.	(16bb\L	.
.	.	16aa\JJ	.
8B\ 8G\ 8D\	.	16gg\LL	.
.	.	16aa\	.
8B\J 8G\ 8D\	.	16bb\	.
.	.	16ccc\JJ)	.
!!LO:LB:g=original
=14	=14	=14	=14
!	!	!	!LO:DY:rj
8GG/	.	8ddd\L	f
8B\L 8G\ 8D\	.	8ddd\ 8dd\	.
8B\ 8G\ 8D\	.	8ggg\ 8gg\	.
8B\J 8G\ 8D\	.	8ggg\J 8gg\	.
=15	=15	=15	=15
8C\L	.	8aa\L 8a\	.
8c\J 8A\ 8E\	.	8aa\ 8a\	.
8D\L	.	8ddd\ 8dd\	.
8d\J 8A\ 8F#\	.	8ddd\J 8dd\	.
=16	=16	=16	=16
8d\ 8B\ 8G\	.	8.gg\L 8.g\	.
8r	.	.	.
.	.	16dd\Jk	.
*	*	*trmeolo	*
4r	.	16dd'\LL	.
.	.	16dd'\	.
.	.	16dd'\	.
.	.	16dd'\JJ	.
*	*	*Xtremolo	*
=17	=17	=17	=17
!	!	!	!LO:DY:rj:t=for
8GG/ 8GGG/	.	8bb\L 8b\	f
8B\L 8G\ 8D\	.	16bb\L 16b\	.
.	.	16aa\JJ 16a\	.
8B\ 8G\ 8D\	.	16gg\LL 16g\	.
.	.	16aa\ 16a\	.
8B\J 8G\ 8D\	.	16bb\ 16b\	.
.	.	16ccc\JJ 16cc\	.
=18	=18	=18	=18
*rep	*	*	*
8GG/ 8GGG/	.	8ddd\L 8dd\	.
8B\L 8G\ 8D\	.	8ddd\ 8dd\	.
8B\ 8G\ 8D\	.	8ggg\ 8gg\	.
8B\J 8G\ 8D\	.	8ggg\J 8gg\	.
*Xrep	*	*	*
!!LO:LB:g=original
=19	=19	=19	=19
8GG/ 8GGG/	.	8ddd\L 8dd\	.
8B\L 8G\ 8D\	.	8ddd\ 8dd\	.
8B\ 8G\ 8D\	.	8ggg\ 8gg\	.
8B\J 8G\ 8D\	.	8ggg\J 8gg\	.
=20	=20	=20	=20
8D/ 8DD/	.	8ggg\L 8gg'\	.
8c\L 8A\ 8D\	.	8fff#\ 8ff#'\	.
8c\ 8A\ 8D\	.	8ccc\J 8cc'\	.
8c\J 8A\ 8D\	.	8r	.
=21	=21	=21	=21
8G/ 8GG/	.	8bb\L 8b\	.
8B\L 8G\ 8D\	.	16bb\L 16b\	.
.	.	16aa\JJ 16a\	.
8B\ 8G\ 8D\	.	16gg\LL 16g\	.
.	.	16aa\ 16a\	.
8B\J 8G\ 8D\	.	16bb\ 16b\	.
.	.	16ccc\JJ 16cc\	.
=22	=22	=22	=22
*rep	*	*	*
8G/ 8GG/	.	8ddd\L 8dd\	.
8B\L 8G\ 8D\	.	8ddd\ 8dd\	.
8B\ 8G\ 8D\	.	8ggg\ 8gg\	.
8B\J 8G\ 8D\	.	8ggg\J 8gg\	.
*Xrep	*	*	*
=23	=23	=23	=23
!LO:TX:t=P:problem:mixed beam	!	!	!
8C/L 8CC/	.	8aa\L 8a\	.
8c\J 8G\ 8E\	.	8aa\ 8a\	.
!LO:TX:t=P:problem:mixed beam	!	!	!
8C/L 8CC/	.	8ddd\ 8dd\	.
8d\J 8A\ 8F#\ 8D\	.	8ddd\J 8dd\	.
!!LO:LB:g=original
=24	=24	=24	=24
8d\L 8B\ 8G\	.	8gg\L 8g\	.
16d\L 16A\ 16F#\ 16D\	.	16ff#\L 16dd\ 16cc\ 16a\	.
16d\JJ 16A\ 16F#\ 16D\	.	16ff#\JJ 16dd\ 16cc\ 16a\	.
8d\ 8B\ 8G\	.	8gg\ 8dd\ 8b\	.
=!|:	=!|:	=!|:	=!|:
*>B	*	*	*
8r	.	8ff#^\	.
=25!|:	=25!|:	=25!|:	=25!|:
8D/ 8DD/	.	4ff#^t\	mf
8A\L 8F#\ 8D\	.	.	.
.	.	(16qqee#X/LL	.
.	.	16qqff#/JJ	.
8A\ 8F#\ 8D\	.	8dd\)	.
8A\J 8F#\ 8D\	.	8ff#^\	.
=26	=26	=26	=26
*rep	*	*	*
8D/ 8DD/	.	4ff#t\	.
8A\L 8F#\ 8D\	.	.	.
.	.	16qqee#X/LL	.
.	.	16qqff#/JJ	.
8A\ 8F#\ 8D\	.	8dd\	.
8A\J 8F#\ 8D\	.	8ff#\ 8f#^\	.
*Xrep	*	*	*
=27	=27	=27	=27
*rep	*	*	*
8D/ 8DD/	.	8aa\L 8a'\	.
8A\L 8F#\ 8D\	.	8ff#\ 8f#'\	.
8A\ 8F#\ 8D\	.	8dd\ 8d'\	.
8A\J 8F#\ 8D\	.	8ee\J 8e'\	.
*Xrep	*	*	*
=28	=28	=28	=28
*rep	*	*	*
8D/ 8DD/	.	8ff#\L 8f#'\	.
8A\L 8F#\ 8D\	.	8dd\J 8d'\	.
8A\ 8F#\ 8D\	.	8r	.
8A\J 8F#\ 8D\	.	8ff#\	.
*Xrep	*	*	*
!!LO:PB:g=original
=29	=29	=29	=29
*	*	*k[f#]	*
8D/ 8DD/	.	(4ff#t\	.
8A\L 8F#\ 8D\	.	.	.
.	.	16qqee#X/LL	.
.	.	16qqff#/JJ	.
8A\ 8F#\ 8D\	.	8dd\)	.
8A\J 8F#\ 8D\	.	8ff#'^\	.
=30	=30	=30	=30
*rep	*	*	*
8D/ 8DD/	.	(4ff#t\	.
8A\L 8F#\ 8D\	.	.	.
.	.	16qqee#X/LL	.
.	.	16qqff#/JJ	.
8A\ 8F#\ 8D\	.	8dd\L)	.
8A\J 8F#\ 8D\	.	8ff#\J 8dd\ 8a'^\	.
*Xrep	*	*	*
=31	=31	=31	=31
*^	*	*	*
4AA/	8AA\L	.	8ee\L 8cc#X\ 8a\	.
.	8G\J 8E\	.	16ff#\L 16cc#\ 16a\	.
.	.	.	16ff#\JJ 16cc#\ 16a\	.
4AA/	8AA\L	.	8ee\L 8cc#\ 8a\	.
.	8G\J 8E\	.	8ff#\J 8cc#\ 8a\	.
*v	*v	*	*	*
=32	=32	=32	=32
8F#\L 8D\	.	8dd\L 8a\	.
(8A\ 8AA\	.	(8aa\ 8cc#X\ 8a\	.
8B\ 8BB\	.	8gg#X\ 8dd\ 8b\	.
8c#X\J 8C#X\)	.	8ggn\J 8ee\ 8a\	.
=33	=33	=33	=33
!	!	!	!LO:DY:rj
8D/ 8DD/	.	4ff#\ 4dd\ 4a\)	f
8d\L 8A\ 8F#\ 8D\	.	.	.
8d\ 8A\ 8F#\ 8D\	.	8dd/ 8a/ 8f#/	.
8d\J 8A\ 8F#\ 8D\	.	8ff#\ 8dd\ 8a^<\	.
!!LO:LB:g=original
=34	=34	=34	=34
8D/ 8DD/	.	4ff#\ 4dd\ 4a\	.
8d\L 8A\ 8F#\ 8D\	.	.	.
8d\ 8A\ 8F#\ 8D\	.	8dd\ 8a\ 8f#\	.
8d\J 8A\ 8F#\ 8D\	.	8ff#\ 8dd\ 8a^<\	.
=35	=35	=35	=35
8D/ 8DD/	.	8aa\L 8ff#\ 8dd\ 8a'\	.
16d\LL 16A\ 16F#\ 16D\	.	16ff#\L 16dd\ 16a'\	.
16d\JJ 16A\ 16F#\ 16D\	.	16ff#\J 16dd\ 16a'\	.
8d\L 8A\ 8F#\ 8D\	.	8dd\ 8a\ 8f#'\	.
8A\J 8E\ 8C#X\ 8AA\	.	8ee\J 8cc#X\ 8a'\	.
=36	=36	=36	=36
8A/ 8F#/ 8D/ 8DD/	.	8ff#\L 8dd\ 8a\	.
8d\L 8A\ 8F#\ 8D\	.	8dd\J 8a\ 8f#\	.
8d\ 8A\ 8F#\ 8D\	.	8r	.
8d\J 8A\ 8F#\ 8D\	.	8ff#\ 8dd\ 8a^<\	.
=37	=37	=37	=37
*rep	*	*	*
8A/ 8F#/ 8D/ 8DD/	.	4ff#\ 4dd\ 4a\	.
8d\L 8A\ 8F#\ 8D\	.	.	.
8d\ 8A\ 8F#\ 8D\	.	8dd/ 8a/ 8f#/	.
8d\J 8A\ 8F#\ 8D\	.	8ff#\ 8dd\ 8a^<\	.
*Xrep	*	*	*
=38	=38	=38	=38
*rep	*	*	*
8A/ 8F#/ 8D/ 8DD/	.	4ff#\ 4dd\ 4a\	.
8d\L 8A\ 8F#\ 8D\	.	.	.
8d\ 8A\ 8F#\ 8D\	.	8dd/ 8a/ 8f#/	.
8d\J 8A\ 8F#\ 8D\	.	8ff#\ 8dd\ 8a^<\	.
*Xrep	*	*	*
!!LO:LB:g=original
=39	=39	=39	=39
8AA/L 8AAA/	.	8ee\L 8cc#X\ 8a\	.
8G/J 8E/ 8AA/	.	16ff#\L 16cc#\ 16a\	.
.	.	16ff#\JJ 16cc#\ 16a\	.
*rep	*	*	*
8AA/L 8AAA/	.	8ee\L 8cc#\ 8a\	.
8G/J 8E/ 8AA/	.	8ff#\J 8cc#\ 8a\	.
*Xrep	*	*	*
=40	=40	=40	=40
8F#\ 8D\	.	16dd\ 16a\	.
.	.	(16dd\LL	.
8r	.	16cc#X\	.
.	.	16dd\JJ	.
4r	.	16ee\LL	.
.	.	16ff#\	.
.	.	16gg\	.
.	.	16aa\JJ	.
=41	=41	=41	=41
8GG/	.	8bb\L)|	p
8B\L 8G\ 8D\	.	(16bb\L	.
.	.	16aa\JJ	.
8B\ 8G\ 8D\	.	16gg\LL	.
.	.	16aa\	.
8B\J 8G\ 8D\	.	16bb\	.
.	.	(16ccc\JJ)	.
=42	=42	=42	=42
*rep	*	*	*
8GG/	.	8ddd\L)	.
8B\L 8G\ 8D\	.	8ddd\ 8dd\	.
8B\ 8G\ 8D\	.	8ggg\ 8gg\	.
8B\J 8G\ 8D\	.	8ggg\J 8gg\	.
*Xrep	*	*	*
!!LO:LB:g=original
=43	=43	=43	=43
8GG/	.	8ddd\L 8dd'\	.
8B\L 8G\ 8D\	.	8ddd\ 8dd'\	.
8B\ 8G\ 8D\	.	8ggg\ 8gg'\	.
8B\J 8G\ 8D\	.	8ggg\J 8gg'\	.
=44	=44	=44	=44
8D/ 8DD/	.	8ggg\L 8gg'\	.
8c\L 8A\ 8D\	.	8fff#\ 8ff#'\	.
8c\ 8A\ 8D\	.	8ccc\J 8cc'\	.
8c\J 8A\ 8D\	.	8r	.
=45	=45	=45	=45
.	.	(8qb/|	.
8GG/	.	8bb\L)	.
8B\L 8G\ 8D\	.	(16bb\L	.
.	.	16aa\JJ	.
8B\ 8G\ 8D\	.	16gg\LL	.
.	.	16aa\	.
8B\J 8G\ 8D\	.	16bb\	.
.	.	16ccc\JJ	.
=46	=46	=46	=46
*rep	*	*	*
8GG/	.	8ddd\L)	.
8B\L 8G\ 8D\	.	8ddd\ 8dd\	.
8B\ 8G\ 8D\	.	8ggg\ 8gg\	.
8B\J 8G\ 8D\	.	8ggg\J 8gg\	.
*Xrep	*	*	*
=47	=47	=47	=47
8C\L	.	8aa\L 8a\	.
8c\J 8A\ 8E\	.	8aa\ 8a\	.
8D\L	.	8ddd\ 8dd\	.
8d\J 8A\ 8F#\	.	8ddd\J 8dd\	.
!!LO:LB:g=original
=48	=48	=48	=48
4d\ 4B\ 4G\	.	8.gg\L 8.g\	.
.	.	16dd\Jk	.
*	*	*tremolo	*
4r	.	16dd'\LL	.
.	.	16dd'\	.
.	.	16dd'\	.
.	.	16dd'\JJ	.
*	*	*Xtremolo	*
=49	=49	=49	=49
8GG/ 8GGG/	.	8bb\L 8b\	f
8B\L 8G\ 8D\	.	16bb\L 16b\	.
.	.	16aa\JJ 16a\	.
8B\ 8G\ 8D\	.	16gg\LL 16g\	.
.	.	16aa\ 16a\	.
8B\J 8G\ 8D\	.	16bb\ 16b\	.
.	.	16ccc\JJ 16cc\	.
=50	=50	=50	=50
*rep	*	*	*
8GG/ 8GGG/	.	8ddd\L 8dd\	.
8B\L 8G\ 8D\	.	8ddd\ 8dd\	.
8B\ 8G\ 8D\	.	8ggg\ 8gg\	.
8B\J 8G\ 8D\	.	8ggg\J 8gg\	.
*Xrep	*	*	*
=51	=51	=51	=51
*rep	*	*rep	*
8GG/ 8GGG/	.	8ddd\L 8dd\	.
8B\L 8G\ 8D\	.	8ddd\ 8dd\	.
8B\ 8G\ 8D\	.	8ggg\ 8gg\	.
8B\J 8G\ 8D\	.	8ggg\J 8gg\	.
*Xrep	*	*Xrep	*
=52	=52	=52	=52
8D/ 8DD/	.	8ggg\L 8gg'\	.
8c\L 8A\ 8D\	.	8fff#\ 8ff#'\	.
8c\ 8A\ 8D\	.	8ccc\J 8cc'\	.
8c\J 8A\ 8D\	.	8r	.
!!LO:LB:g=original
=53	=53	=53	=53
8GG/ 8GGG/	.	8bb\L 8b\	.
8B\L 8G\ 8D\	.	16bb\L 16b\	.
.	.	16aa\JJ 16a\	.
8B\ 8G\ 8D\	.	16gg\LL 16g\	.
.	.	16aa\ 16a\	.
8B\J 8G\ 8D\	.	16bb\ 16b\	.
.	.	16ccc\JJ 16cc\	.
=54	=54	=54	=54
*rep	*	*	*
8GG/ 8GGG/	.	8ddd\L 8dd\	.
8B\L 8G\ 8D\	.	8ddd\ 8dd\	.
8B\ 8G\ 8D\	.	8ggg\ 8gg\	.
8B\J 8G\ 8D\	.	8ggg\J 8gg\	.
*Xrep	*	*	*
=55	=55	=55	=55
!LO:TX:t=P:problem:mixed beam	!	!	!
8C/L 8CC/	.	8aa\L 8a\	.
8c\J 8A\ 8C\	.	8aa\ 8a\	.
8D\L 8DD\	.	8ddd\ 8dd\	.
8d\J 8A\ 8F#\ 8D\	.	8ddd\J 8dd\	.
=56	=56	=56	=56
8d\L 8B\ 8G\	.	8gg\L 8g\	.
16d\L 16A\ 16F#\ 16D\	.	16ff#\L 16dd\ 16cc\ 16a\	.
16d\JJ 16A\ 16F#\ 16D\	.	16ff#\JJ 16dd\ 16cc\ 16a\	.
!	!	!LO:TX:b:t=Trio	!
8d\ 8B\ 8G\	.	8gg\ 8dd\ 8b\ 8g\	.
!!LO:PB:g=original
=:|!	=:|!	=:|!;	=:|!
*>C	*	*	*
!	!	!LO:TX:t=P:problem:fragment skreślony ołówkiem	!
16d\LL 16A\ 16F#\ 16D\	.	16ddd\LL 16ff#\ 16dd\	.
16d\JJ 16A\ 16F#\ 16D\	.	16ddd\JJ 16ff#\ 16dd\	.
=57	=57	=57	=57
8d\ 8B\ 8G\	.	8bb\ 8gg\ 8dd\	.
16d\LL 16A\ 16F#\ 16D\	.	16ff#\LL 16dd\ 16cc\ 16a\	.
16d\JJ 16A\ 16F#\ 16D\	.	16ff#\JJ 16dd\ 16cc\ 16a\	.
8d\ 8B\ 8G\	.	8gg\ 8dd\ 8b\	.
16d\LL 16A\ 16F#\ 16D\	.	16ddd\LL 16ff#\ 16dd\	.
16d\JJ 16A\ 16F#\ 16D\	.	16ddd\JJ 16ff#\ 16dd\	.
=58	=58	=58	=58
8d\ 8B\ 8G\	.	8bb\ 8gg\ 8dd\	.
16d\LL 16D\	.	16fff#\LL 16ddd\ 16aa\	.
16d\JJ 16D\	.	16fff#\JJ 16ddd\ 16ccc\ 16aa\	.
8G/L 8GG/	.	8ggg\L 8ddd\ 8bb\ 8gg\	.
8D/J 8DD/	.	8fff#\J 8ddd\ 8aa\ 8ff#\	.
=59	=59	=59	=59
8G/ 8GG/	.	8ggg\ 8ddd\ 8bb\ 8gg\	.
16r	.	16r	.
!	!	!LO:SIC:v:n=2:s=16a-	!
16A\ 16AA\|	.	16aa-X\ 16a\|	.
[4G\ [4BB\|	.	[4gg\ [4g\	.
=60	=60	=60	=60
!LO:N:vis=8	!	!	!
8.G/]L 8.BB/]	.	8.gg/]L 8.g\]	.
!	!	!LO:SIC:v:n=2:s=16fn	!
16Fn/K 16FFn/	.	16ffn/K 16f#\	.
8E/ 8EE/	.	8ee/ 8e\|	.
8D/J 8DD/	.	8dd/J 8d\|	.
!!LO:LB:g=original
=61||	=61||	=61||	=61||
*k[]	*	*k[]	*
*M6/8	*	*M6/8	*
.	.	(16qqcc'/KL	mf
!LO:TX:a:t=sec.	!	!LO:TX:a:t=Trio	!
.	.	8qqdd'/J	.
8C/ 8CC/	.	8ee'\L)	.
8r	.	8dd'^\	.
8r	.	8cc'\J	.
8A\ 8F\ 8C\	.	8dd'\L	.
8r	.	8cc'^\	.
8r	.	8b'\J	.
=62	=62	=62	=62
8G\ 8E\ 8C\	.	8g\L	<
8r	.	8gg\ 8g^\	.
8r	.	8gg\J 8g\	.
!	!	!LO:TX:t=P:problem:mixed beam	!
8G\ 8E\ 8C\	.	8gg\L 8g\	[ >
8r	.	8g^\	.
8r	.	8g\J	]]
=63	=63	=63	=63
8G\ 8F\ 8D\ 8FF\	.	(8g\L	<
8r	.	8aa-X\ 8a-X^\)	.
8r	.	8aa-\J 8a-'\	.
8G\ 8F\ 8D\ 8FF\	.	(8aa-\L 8a-X\	[ >
8r	.	8b^\)	.
8r	.	8b'\J	]]
=64	=64	=64	=64
8G\ 8E\ 8C\	.	8cc'/L	.
8r	.	8g'/	.
8r	.	8a'/J	.
8G\ 8E\ 8C\	.	8b'\L	.
8r	.	8cc'\	.
8r	.	8dd'\J	.
!!LO:LB:g=original
=65	=65	=65	=65
.	.	(16qqcc/LL	.
.	.	16qqdd/JJ	.
8G\ 8E\ 8C\	.	8ee'\L)	.
8r	.	8dd'\	.
8r	.	8b'\J	.
8A\ 8F\ 8C\	.	8dd'\L	.
8r	.	8cc'\	.
8r	.	8a'\J	.
=66	=66	=66	=66
*	*	*^	*
8G\ 8E\ 8C\	.	(8g\L	8ryy	.
8r	.	8gg\ 8g\	8ryy	.
8r	.	8gg\J 8g\)	8ryy	.
!	!	!LO:TX:t=P:problem:mixed beam	!	!
8G\ 8E\ 8C\	.	(8gg/L	8g\	.
8r	.	8g/	8ryy	.
8r	.	8g/J)	8ryy	.
*	*	*v	*v	*
=67	=67	=67	=67
8G\ 8F\ 8D\ 8GG\	.	(8g\L	.
8r	.	8aa-X\ 8a-X\)	.
8r	.	8aa-\J 8a-'\	.
8G\ 8F\ 8D\ 8GG\	.	(8aa-\L 8a-\	.
8r	.	8b\)	.
8r	.	8b'\J	.
=68	=68	=68	=68
8G\L 8E\ 8C\	.	8cc\L	.
8E\	.	8ryy	.
8G\J	.	8ee\J	.
8c\ 8C\	.	8cc\	.
8r	.	8r	.
8r	.	16ccc\LL	.
.	.	16ddd\JJ	.
=69	=69	=69	=69
8C\L 8CC\	.	8eee\L	f
8c\ 8G\ 8E\ 8C\	.	8ddd\	.
8c\J 8G\ 8E\ 8C\	.	8bb\J	.
8C\L 8CC\	.	8ddd\L	.
8c\ 8A\ 8F\ 8C\	.	8ccc\	.
8c\J 8A\ 8F\ 8C\	.	8aa\J	.
!!LO:LB:g=original
=70	=70	=70	=70
8C\L 8CC\	.	8gg\L	.
8c\ 8G\ 8E\ 8C\	.	8ggg\ 8gg\	.
8c\J 8G\ 8E\ 8C\	.	8ggg\J 8gg\	.
4.c\ 4.G\ 4.E\ 4.C\	.	8ggg\L 8gg\	.
.	.	8gg\	.
.	.	8gg\J	.
=71	=71	=71	=71
8GG/L 8GGG/	.	8gg\L	.
8G/ 8F/ 8D/ 8GG/	.	8aaa-X\ 8aa-X\	.
8G/J 8F/ 8D/ 8GG/	.	8aaa-\J 8aa-\	.
4.G/ 4.F/ 4.D/ 4.GG/	.	8aaa-\L 8aa-\	.
.	.	8bb\ 8b\	.
.	.	8bb\J 8b\	.
=72	=72	=72	=72
8C/L 8CC/	.	8ccc\L 8cc\	.
8G/ 8E/ 8C/	.	8gg\ 8g'\	.
8G/J 8E/ 8C/	.	8aa\J 8a'\	.
4.G/ 4.E/ 4.C/	.	8bb\L 8b'\	.
.	.	8ccc\ 8cc'\	.
.	.	8ddd\J 8dd'\	.
=73	=73	=73	=73
.	.	(16qqccc/LL	.
.	.	16qqddd/JJ	.
8C\L 8CC\	.	8eee\L)	.
8c\ 8G\ 8E\ 8C\	.	8ddd\	.
8c\J 8G\ 8E\ 8C\	.	8bb\J	.
8C\L 8CC\	.	8ddd\L	.
8c\ 8A\ 8F\ 8C\	.	8ccc\	.
8c\J 8A\ 8F\ 8C\	.	8aa\J	.
!!LO:PB:g=original
=74	=74	=74	=74
8C\L 8CC\	.	8gg'\L	.
8c\ 8G\ 8E\ 8C\	.	8ggg\ 8gg'\	.
8c\J 8G\ 8E\ 8C\	.	8ggg\J 8gg'\	.
4.c\ 4.G\ 4.E\ 4.C\	.	8ggg\L 8gg'\	.
.	.	8gg'\	.
.	.	8gg'\J	.
=75	=75	=75	=75
8GG/L 8GGG/	.	8gg\L	.
8G/ 8F/ 8D/ 8GG/	.	8aaa-X\ 8aa-X\	.
8G/J 8F/ 8D/ 8GG/	.	8aaa-\J 8aa-\	.
4.G/ 4.F/ 4.D/ 4.GG/	.	8aaa-\L 8aa-\	.
.	.	8bb\ 8b\	.
.	.	8bb\J 8b\	.
=	=	=	=
4G\ 4E\ 4C\	.	4ccc\ 4cc\	.
8r	.	8r	.
=76!|:	=76!|:	=76!|:	=76!|:
*>D	*	*	*
*^	*	*	*
8G#X/L	8GG#X\L	.	8ee\L 8dd\ 8b\	p
8r	8r	.	8r	.
8G#/J	8GG#\J	.	8ee\J 8dd\ 8b\	.
=77	=77	=77	=77	=77
8A/L	8AA\L	.	4ee\ 4cc\	.
8r	8r	.	.	.
8A/J	8AA\J	.	8ccc\ 8ee\ 8cc\	.
8A\L 8F\ 8D\	4ryy	.	8ff\L	.
8r	.	.	8gg\	.
8A-X\J 8F\ 8D\	8ryy	.	8ff\J	.
*v	*v	*	*	*
=78	=78	=78	=78
8A\L 8E\ 8C\ 8AA\	.	8ee\L	.
8r	.	8r	.
8A\J 8E\ 8C\ 8AA\	.	(8ee\J	.
8A\L 8E\ 8C\	.	8aa\L)	.
8r	.	8r	.
8A\J 8E\ 8C\	.	8aa\J	.
!!LO:LB:g=original
=79	=79	=79	=79
!	!	!	!LO:DY:rj
8B\L 8F\ 8D\	.	8bb\L 8b'\	f
8r	.	8ccc\ 8cc'\	.
8B\J 8F\ 8D\	.	8ddd\J 8dd'\	.
8d\L 8B\ 8G#X\ 8E\	.	4eee\ 4ee'\	.
8r	.	.	.
8d\J 8B\ 8G#\ 8E\	.	8eee\ 8ee'\	.
=80	=80	=80	=80
8c\L 8A\	.	4ccc\ 4cc'\	.
8r	.	.	.
8c\J 8A\	.	8aa\ 8a'\	.
8d\L 8B\ 8G#X\ 8E\	.	8ee\L	p
8r	.	8r	.
8d\J 8B\ 8G#\ 8E\	.	8ee\J	.
=81	=81	=81	=81
8c\L 8A\	.	(4ee\	.
8r	.	.	.
8c\J 8A\	.	8ccc\)	.
8d\L 8A\ 8F\ 8D\	.	8ff\L	.
8r	.	8gg\	.
8d\J 8A\ 8F\ 8D\	.	8ff\J	.
=82	=82	=82	=82
8c\L 8A\	.	8ee\L|	.
8r	.	8r	.
8c\J 8A\	.	(8ee\J	.
8A\L 8E\ 8C\	.	8aa\L)	.
8r	.	8r	.
8A\J 8E\ 8C\	.	8aa\J	.
=83	=83	=83	=83
!	!	!	!LO:DY:rj:t=for
8B\L 8F\ 8D\	.	8bb\L 8b\	f
8r	.	8ccc\ 8cc\	.
8B\J 8F\ 8D\	.	8ddd\J 8dd\	.
8d\L 8G#X\ 8E\	.	8eee\L 8ee\	.
8r	.	8bb\ 8b\	.
8d\J 8G#\ 8E\	.	8ccc\J 8cc\	.
=84	=84	=84	=84
4c\ 4A\	.	4aa\ 4a\	.
8r	.	8r	.
4.G/ 4.GG/	.	4.b/ 4.f/ 4.d/	.
!!LO:LB:g=original
=85	=85	=85	=85
.	.	(16qqcc/LL	p
.	.	16qqdd/JJ	.
8C/ 8CC/	.	8ee'\L)	.
8r	.	8dd'\	.
8r	.	8b'\J	.
8A\ 8F\ 8C\	.	8dd'\L	.
8r	.	8cc'\	.
8r	.	8a'\J	.
=86	=86	=86	=86
*	*	*^	*
!	!	!LO:TX:t=P:problem:mixed beam	!	!
8G\ 8E\ 8C\	.	8g'/L	8ryy	.
8r	.	8gg'\	8g\L	.
8r	.	8gg'\J	8g\J	.
!	!	!LO:TX:t=P:problem:mixed beam	!	!
8G\ 8E\ 8C\	.	8gg'\L	8g\	.
8r	.	8g'/	8ryy	.
8r	.	8g'/J	8ryy	.
*	*	*v	*v	*
=87	=87	=87	=87
8G/ 8F/ 8D/ 8GG/	.	8g\L	.
8r	.	8aa-X/ 8a-X\	.
8r	.	8aa-/J 8a-\	.
8G/ 8F/ 8D/ 8GG/	.	8aa-\L 8a-\	.
8r	.	8b\	.
8r	.	8b\J	.
=88	=88	=88	=88
8G\ 8E\ 8C\	.	8cc\L	.
8r	.	8gg/ 8g'\	<
8r	.	8aa/J 8a'\	.
8G\ 8E\ 8C\	.	8bb/L 8b'\	.
8r	.	8ccc/ 8cc'\	.
8r	.	8ddd/J 8dd'\	[[
=89	=89	=89	=89
.	.	16qqccc/LL	.
.	.	16qqddd/JJ	.
!	!	!	!LO:DY:t=for
8C\L 8CC\	.	8eee\L	f
8c\ 8G\ 8E\ 8C\	.	8ddd\	.
8c\J 8G\ 8E\ 8C\	.	8bb\J	.
8C\L 8CC\	.	8ddd\L	.
8c\ 8A\ 8F\ 8C\	.	8ccc\	.
8c\J 8A\ 8F\ 8C\	.	8aa\J	.
!!LO:LB:g=original
=90	=90	=90	=90
8C\L 8CC\	.	8gg\L	.
8c\ 8G\ 8E\ 8C\	.	8ggg\ 8gg\	.
8c\J 8G\ 8E\ 8C\	.	8ggg\J 8gg\	.
4.c\ 4.G\ 4.E\ 4.C\	.	8ggg\L 8gg\	.
.	.	8gg\	.
.	.	8gg\J	.
=91	=91	=91	=91
8GG/L 8GGG/	.	8gg\L	.
8G/ 8F/ 8D/ 8GG/	.	8aaa-X\ 8aa-X\	.
8G/J 8F/ 8D/ 8GG/	.	8aaa-\J 8aa-\	.
4.G/ 4.F/ 4.D/ 4.GG/	.	8aaa-\L 8aa-\	.
.	.	8bb\ 8b\	.
.	.	8bb\J 8b\	.
=92	=92	=92	=92
!LO:TX:a:t=1	!	!	!
*>D1	*	*	*
4G\ 4E\ 4C\	.	4ccc\ 4cc\	.
8r	.	8r	.
=93:|!	=93:|!	=93:|!	=93:|!
!LO:TX:a:t=2	!	!	!
*>D2	*	*	*
8G\L 8E\ 8C\	.	8ccc\L 8cc\	.
8G\ 8GG\	.	8ee\	.
8E\J 8EE\	.	8gg\J	.
!	!	!LO:TX:b:t=Marche\nda Capo	!
4C/ 4CC/	.	4ccc\ 4cc\	.
==	==	==	==
*-	*-	*-	*-
!!!system-decoration: [(s1,s2)]
!!!RDF**kern: > = above
!!!RDF**kern: < = below
!!!EED: Leszek Kubiak
!!!EST: 2021-05-10
!!!ENC: Krzysztof Stępień
!!!END: 2021-04-10
!!!RDF**kern: | = vertical stroke
